icon/pk/goblet-cracking.svg

<svg width="48" height="48" fill="none" xmlns="http://www.w3.org/2000/svg"><path d="M33 44H13M23 28v16" stroke="#000" stroke-width="4" stroke-linecap="round" stroke-linejoin="round"/><path d="M35 16c0 6.5-5.373 12-12 12s-12-5.373-12-12c0-6.5 4-12 4-12h16s4 5.5 4 12Z" fill="#2F88FF" stroke="#000" stroke-width="4" stroke-linecap="round" stroke-linejoin="round"/><path d="m23 4-2 6 4 1-2 6" stroke="#fff" stroke-width="4" stroke-linecap="round" stroke-linejoin="round"/><path d="M15 4h16" stroke="#000" stroke-width="4" stroke-linecap="round" stroke-linejoin="round"/></svg>

<svg viewBox="0 0 48 48" fill="none" xmlns="http://www.w3.org/2000/svg" height="1em" width="1em">
  <path d="M33 44H23H13" stroke="black" stroke-width="4" stroke-linecap="round" stroke-linejoin="round"/>
  <path d="M23 28V44" stroke="black" stroke-width="4" stroke-linecap="round" stroke-linejoin="round"/>
  <path d="M35 16C35 22.5 29.6274 28 23 28C16.3726 28 11 22.6274 11 16C11 9.5 15 4 15 4H31C31 4 35 9.5 35 16Z" fill="#2F88FF" stroke="black" stroke-width="4" stroke-linecap="round" stroke-linejoin="round"/>
  <path d="M23 4L21 10L25 11L23 17" stroke="white" stroke-width="4" stroke-linecap="round" stroke-linejoin="round"/>
  <path d="M15 4H31" stroke="black" stroke-width="4" stroke-linecap="round" stroke-linejoin="round"/>
</svg>
